src/Components/UI/form/svg/noeye.svg

<?xml version="1.0" encoding="UTF-8" standalone="no"?><!DOCTYPE svg PUBLIC "-//W3C//DTD SVG 1.1//EN" "http://www.w3.org/Graphics/SVG/1.1/DTD/svg11.dtd"><svg width="100%" height="100%" viewBox="0 0 64 64" version="1.1" xmlns="http://www.w3.org/2000/svg" xmlns:xlink="http://www.w3.org/1999/xlink" xml:space="preserve" xmlns:serif="http://www.serif.com/" style="fill-rule:evenodd;clip-rule:evenodd;stroke-linejoin:round;stroke-miterlimit:2;"><rect id="Icons" x="-960" y="-256" width="1280" height="800" style="fill:none;"/><g id="Icons1" serif:id="Icons"><g id="Strike"></g><g id="H1"></g><g id="H2"></g><g id="H3"></g><g id="list-ul"></g><g id="hamburger-1"></g><g id="hamburger-2"></g><g id="list-ol"></g><g id="list-task"></g><g id="trash"></g><g id="vertical-menu"></g><g id="horizontal-menu"></g><g id="sidebar-2"></g><g id="Pen"></g><g id="Pen1" serif:id="Pen"></g><g id="clock"></g><g id="external-link"></g><g id="hr"></g><g id="info"></g><g id="warning"></g><g id="plus-circle"></g><g id="minus-circle"></g><g id="vue"></g><g id="cog"></g><g id="logo"></g><g id="eye-slash"><path d="M13.673,10.345l-3.097,3.096l39.853,39.854l3.097,-3.097l-39.853,-39.853Z"/><path d="M17.119,19.984l2.915,2.915c-3.191,2.717 -5.732,6.099 -7.374,9.058l-0.005,0.01c4.573,7.646 11.829,14.872 20.987,13.776c2.472,-0.296 4.778,-1.141 6.885,-2.35l2.951,2.95c-4.107,2.636 -8.815,4.032 -13.916,3.342c-9.198,-1.244 -16.719,-8.788 -21.46,-17.648c2.226,-4.479 5.271,-8.764 9.017,-12.053Zm6.63,-4.32c2.572,-1.146 5.355,-1.82 8.327,-1.868c0.165,-0.001 2.124,0.092 3.012,0.238c0.557,0.092 1.112,0.207 1.659,0.35c8.725,2.273 15.189,9.649 19.253,17.248c-1.705,3.443 -3.938,6.803 -6.601,9.682l-2.827,-2.827c1.967,-2.12 3.607,-4.48 4.87,-6.769c0,0 -1.27,-2.042 -2.233,-3.324c-0.619,-0.824 -1.27,-1.624 -1.954,-2.395c-0.54,-0.608 -2.637,-2.673 -3.136,-3.103c-3.348,-2.879 -7.279,-5.138 -11.994,-5.1c-1.826,0.029 -3.582,0.389 -5.249,0.995l-3.127,-3.127Z" style="fill-rule:nonzero;"/><path d="M25.054,27.92l2.399,2.398c-0.157,0.477 -0.243,0.987 -0.243,1.516c0,2.672 2.169,4.841 4.841,4.841c0.529,0 1.039,-0.085 1.516,-0.243l2.399,2.399c-1.158,0.65 -2.494,1.02 -3.915,1.02c-4.425,0 -8.017,-3.592 -8.017,-8.017c0,-1.421 0.371,-2.756 1.02,-3.914Zm6.849,-4.101c0.049,-0.001 0.099,-0.002 0.148,-0.002c4.425,0 8.017,3.593 8.017,8.017c0,0.05 0,0.099 -0.001,0.148l-8.164,-8.163Z"/></g><g id="eye"></g><g id="toggle-off"></g><g id="shredder"></g><g id="spinner--loading--dots-" serif:id="spinner [loading, dots]"></g><g id="react"></g></g></svg>

<svg width="64" height="64" viewBox="0 0 64 64" fill="none" xmlns="http://www.w3.org/2000/svg">
<g clip-path="url(#clip0_112_38)">
<path fill-rule="evenodd" clip-rule="evenodd" d="M13.673 10.345L10.576 13.441L50.429 53.295L53.526 50.198L13.673 10.345Z" fill="black"/>
<path d="M17.119 19.984L20.034 22.899C16.843 25.616 14.302 28.998 12.66 31.957L12.655 31.967C17.228 39.613 24.484 46.839 33.642 45.743C36.114 45.447 38.42 44.602 40.527 43.393L43.478 46.343C39.371 48.979 34.663 50.375 29.562 49.685C20.364 48.441 12.843 40.897 8.10199 32.037C10.328 27.558 13.373 23.273 17.119 19.984ZM23.749 15.664C26.321 14.518 29.104 13.844 32.076 13.796C32.241 13.795 34.2 13.888 35.088 14.034C35.645 14.126 36.2 14.241 36.747 14.384C45.472 16.657 51.936 24.033 56 31.632C54.295 35.075 52.062 38.435 49.399 41.314L46.572 38.487C48.539 36.367 50.179 34.007 51.442 31.718C51.442 31.718 50.172 29.676 49.209 28.394C48.59 27.57 47.939 26.77 47.255 25.999C46.715 25.391 44.618 23.326 44.119 22.896C40.771 20.017 36.84 17.758 32.125 17.796C30.299 17.825 28.543 18.185 26.876 18.791L23.749 15.664Z" fill="black"/>
<path fill-rule="evenodd" clip-rule="evenodd" d="M25.054 27.92L27.453 30.318C27.296 30.795 27.21 31.305 27.21 31.834C27.21 34.506 29.379 36.675 32.051 36.675C32.58 36.675 33.09 36.59 33.567 36.432L35.966 38.831C34.808 39.481 33.472 39.851 32.051 39.851C27.626 39.851 24.034 36.259 24.034 31.834C24.034 30.413 24.405 29.078 25.054 27.92ZM31.903 23.819C31.952 23.818 32.002 23.817 32.051 23.817C36.476 23.817 40.068 27.41 40.068 31.834C40.068 31.884 40.068 31.933 40.067 31.982L31.903 23.819Z" fill="black"/>
</g>
<defs>
<clipPath id="clip0_112_38">
<rect width="64" height="64" fill="white"/>
</clipPath>
</defs>
</svg>
